X: 12
T: Out On the Ocean   [G]
S: Roaring Jelly collection
R: Jig
M: 6/8
L: 1/8
K: G
FE \
| "G"D2B BAG | BdB "D7"ABA | "G"GED "(D)"G2A | "G"BdB "D7"AGE \
| "G"D2B BAG | BdB "D7"ABA | "G"GED "(C)"G2A | "D7"BGF "G"G :|
 Bd \
| "Em"e3 edB | "C"efe edB | "G"ded dBA | d2d "D7"dBA \
| "G"G2A B2d | "C"ege "D7"dBA | "G"GED "(C)"G2A | "D7"BGF "G"G |]
 Bd \
| "Em"e3 edB | "C"efe edB | "G"ded "D7"def | "G"gfe "D7"dBA \
| "G"G2A B2d | "C"ege "D7"dBA | "G"GED "(C)"G2A | "D7"BGF "G"G |]

%%sep 1 1 500

